X: 28921
T: Na Maithe Mora
R: waltz
M: 3/4
K: Gmajor
"G"z2 BA BG|"D/F#"A2 d2 D2|"C/E"z2 GFGA|"G/D"B2 D2 GF|
"Am"E2 Gc cd|"G/B"B2 GA Bd|"C"e2 cd eg|"D"ga "Am/E"ed "D/F#"gf|
"G"g2 GA BG|"D/F#"A2 d2 D2|"C/E"z2 GF GA|"G/D"B2 D2 GF|
"Am"EG Gc de|"G/B"DG GA Bc|"C"de "G/D"B2 "D"A2|1 "G"G6:|2 "G"G4 gf||
|:"G"g2 de BA|"D/G"Bc AB GF|"C/E"GF "G/D"Gc "Am/C"BG|"Gma7/B"D3 D EG|
"Am"A3 B GA|"G/B"B2 GA Bd|"C"e2 de cB|"D:"AB "Am/E"de "D/F#"ga|
"G"bc' ag ed|"D/G"Bc A3 B|"C/E"GF "G/D"Gc "Am/C"BG|"Gma7/B"D3 G FD|
"Am"EG Gc de|"G/B"DG GA Bc|"C"de "G/D"B2 "D"A2|1 "G"G4 gf:|2 "G"G6||

